X:1
T:Wenn uns die sorg will krencken
T:Adam Gumpelzhaimer
T:Source : Neüe Teütsche Geistliche Lieder mit 3 stimmen---Augsburg---V.Schönigk---1591. Editor : André Vierendeels (01/07/16).
T:Notes : Original clefs : G2, G2, C3 Editorial accidentals above the staff Text Middle German
T:Wenn uns die sorg will krencken
T:©
T:©
T:©
T:©
T:©
C:Adam Gumpelzhaimer
Z:©
%%score [ 1 2 3 ]
L:1/8
Q:1/4=109
M:4/4
K:F
V:1 treble nm="Soprano 1" snm="S 1"
V:2 treble nm="Soprano 2" snm="S 2"
V:3 treble-8 nm="Tenor" snm="T"
V:1
 d4 _e4 | d2 c4 B2 | A4 A4 | z2 A2 d3 c | B2 B2 c3 B | A2 A2 G4 | d4 _e4 | d2 c4 B2 | A4 A4 | %9
w: Wenn uns|die sorg will|kren- cken,|O Vat- *|* ter treu- *|* er Gott,|so gib|das wir ge-|den- cken,|
w: O Herz,|du wolst auch|ge- hen,|zu un- *|* zer speisz _|_ und tranck,|des Him-|me- li- schen|se- gen,|
w: Vat- ter|uns Him- mels|thro- ne,|ge- hei- *|* ligt werd _|_ dein Nam,|dein Reich|zu uns auch|kom- me,|
 z2 A2 d3 c | B2 B2 c3 B | A2 A2 G4 |: z2 g2 f2 e2 | d2 c2 d3 e | f2 g2 e4 | d4 z2 f2 | %16
w: an je- *|* ne we- *|* nig brod,|mit den dein|Sohn, mit den dein|Sohn ge- spei-|set, die|
w: das wir _|_ zu dei- *|* ner danck,|em- pfah- en|on ver- sün- *||den, das|
w: der ghor _|_ sam al- *|* le- sam,|gib du uns|Brot zu le- *||ben, die|
 e2 g2 f2 e2 | d2 g4 ^f2 |1[M:2/4] g4 :|2[M:4/4] g4 z2 d2 || f3 e d2 d2 | c4 d2 d2 | d3 c B2 B2 | %23
w: so zu ihn ge-|rei- * *|set,|set, durch|sei- nes wor- tes|saf- te, und|sei- ner hen- de|
w: wir gnad bei dir|fin- * *|den,|den, hie|inn des le- bens|zei- te, und|dort in E- wig-|
w: sünd wölst uns ver-|ge- * *|ben,|ben, wend|ab all angst und|gfa- re, vom|Bösn uns starck be-|
 A4 =B2 d2 | f3 e d2 d2 | c4 d2 d2 | d3 c B2 B2 | A8 | !fermata!=B8 |] %29
w: kraff- te, durch|sei- nes wor- tes|saf- te, und|sei- ner hen- de|kraff-|te.|
w: kei- te, hie|inn des le- bens|zei- te, und|dort in E- wig-|kei-|te.|
w: wah- ren, wend|ab all angst und|gfa- re, vom|Bösn uns starck be-|wah-|ren.|
V:2
 =B4 c4 | B2 A4 G2 | ^F4 F2 A2 |"^-natural" F3 E DE F2- | F2 G2 AG G2- | G2 ^F2 G4 | =B4 c4 | %7
w: Wenn uns|die sorg will|kren- cken, O|Vat- * * * *|* ter treu- * *|* er Gott,|so gib|
w: O Herz,|du wolst auch|ge- ben, O|Vat- * * * *|* ter treu- * *|* er Gott,|des Him-|
w: Vat- ter|uns Him- mels|thro- ne, ge-|hei- * * * *|* ligt werd _ _|_ dein Nam,|dein Reich|
 B2 A4 G2 | ^F4 F2 A2 |"^-natural" F3 E DE F2- | F2 G2 AG G2- | G2 ^F2 G2 B2 |: A2 G2 A4 | %13
w: das wir ge-|den- cken, an|je- * * * *|* ne we- * *|* nig brod, mit|den dein Sohn,|
w: me- li- schen|se- gen, das|wir _ _ _ _|_ zu dei- * *|* ner danck, em-|pfah- * en,|
w: zu uns auch|kom- me, der|ghor- * * * *|* sam al- * *|* le- sam, gib|_ uns Brot|
 z2 A2 B2 B2 | A2 d2 ^c4 | d2 B2 A3 B | c2 G2 A4 | B4 A4 |1[M:2/4] =B2 _B2 :|2 %19
w: mit den dein|Sohn ge- spei-|set, die so _|_ zu ihn|ge- rei-|set, mit|
w: on ver- sün-||den, das wir _|_ gnad bei|dir fin-|den, em-|
w: gib uns Brot|zu le- *|ben, die sünd _|_ wölst uns|ver- ge-|ben, wend|
[M:4/4]"^b" =B4 z2 B2 || d3 c A2 B2- | B2 A2 B2 B2 | B3 A F2 G2- |"^b" G2 ^F2 G2 =B2 | %24
w: set, durch|sei- nes wor- tes|_ saf- te, und|sei- ner hen- de|_ kraff- te, durch|
w: den, hie|inn des le- bens|_ zei- te, und|dort in E- wig-|* kei- te, hie|
w: ben, wend|ab all angst und|_ gfa- re, vom|Bösn uns starck be-|* wah- ren, wend|
 d3 c A2 B2- | B2 A2 B2 B2 | B3 A F2 G2- | G2 FE ^F4 | !fermata!G8 |] %29
w: sei- nes wor- tes|_ saf- te, und|sei- ner hen- de|_ _ _ kraff-|te.|
w: inn des le- bens|_ zei- te, und|dort in E- wig|_ _ _ kei-|te.|
w: ab all angst und|_ gfa- re, vom|Bösn uns starck be-|wah- * * *|ren.|
V:3
 g4 c4 | d2 f4 g2 | d4 d4 | z2 d2 B3 c | d2 _e2 c4 | d4 G4 | g4 c4 | d2 f4 g2 | d4 d4 | %9
w: Wenn uns|die sorg will|kren- cken,|O Vat- *|* ter treu-|er Gott,|so gib|das wir ge-|den- cken,|
w: O Herz,|du wolst auch|ge- ben,|O Vat- *|* ter treu-|er Gott,|des Him-|me- li- schen|se- gen,|
w: Vat- ter|uns Him- mels|thro- ne,|ge- hei- *|* ligt werd|dein Nam,|dein Reich|zu uns auch|kom- me,|
 z2 d2 B3 c | d2 _e2 c4 | d4 G2 g2 |: f2 e2 d2 c2 | B2 A2 GABc | d2 G2 A4 | d4 z2 d2 | %16
w: an je- *|* ne we-|nig brod, mit|den dein Sohn, mit|den dein Sohn _ _ _|_ ge- spei-|set, die|
w: das wir _|_ zu dei-|ner danck, em-|pfah- * en, on|ver- sün- * * * *||den, das|
w: der ghor- *|* sam al-|le- sam, gib|_ uns Brod, gib|uns Brot _ zu _ _|_ _ le-|ben, die|
 c2 _e2 d2 c2 | B2 AG d4 |1[M:2/4] G2 g2 :|2[M:4/4]"^b" G4 z2 B2 || B3 c d2 B2 | f4 B2 G2 | %22
w: so zu ihn ge-|rei- * * *|set, mit|set, durch|sei- nes wor- tes|saf- te, und|
w: wir gnad bei dir|fin- * * *|de, em-|den, hie|inn des le- bens|zei- te, und|
w: sünd wölst uns ver-|ge- * * *|ben, wend|ben, wend|ab all angst und|gfa- re, vom|
 G3 A B2 G2 | d4 G2 B2 | B3 c d2 B2 | f4 B2 G2 | G3 A B2 G2 | d8 | !fermata!G8 |] %29
w: sei- ner hen- de|kraff- te, durch|sei- nes wor- tes|saf- te, und|sei- ner hen- de|kraff-|te.|
w: dort in E- wig-|kei- te, hie|inn des le- bens|zei- te, und|dort in E- wig-|kei-|te.|
w: Bösn uns starck be-|wah- ren, wend|ab all angst und|gfa- re, vom|Bösn uns starck be-|wah-|ren.|

